app/images/icon/filter.svg

<svg width="32" height="36" viewBox="0 0 32 36" fill="none" xmlns="http://www.w3.org/2000/svg">
<g clip-path="url(#clip0_862_5407)">
<path d="M13.7804 28.1251H1.13878C0.510161 28.1251 9.68073e-07 28.6291 9.95549e-07 29.2501C1.02303e-06 29.8711 0.510218 30.3751 1.13878 30.3751H13.7803C14.3076 32.9423 16.6046 34.8751 19.3593 34.8751C22.114 34.8751 24.4108 32.9423 24.938 30.3751H30.7469C31.3755 30.3751 31.8857 29.8711 31.8857 29.2501C31.8857 28.6291 31.3755 28.1251 30.7469 28.1251H24.9383C24.411 25.5578 22.114 23.6251 19.3593 23.6251C16.6047 23.6251 14.3076 25.5578 13.7804 28.1251ZM22.7755 29.2501C22.7755 31.1142 21.2463 32.6251 19.3593 32.6251C17.4723 32.6251 15.9429 31.1142 15.9429 29.2501C15.9429 27.3859 17.4723 25.8751 19.3593 25.8751C21.2463 25.8751 22.7755 27.3859 22.7755 29.2501ZM2.39261 16.875H1.13878C0.510161 16.875 4.70298e-07 17.3791 4.97775e-07 18C5.25251e-07 18.621 0.510161 19.125 1.13878 19.125H2.39255C2.9198 21.6923 5.21671 23.6251 7.97145 23.6251C10.7262 23.6251 13.023 21.6923 13.5503 19.125H30.7469C31.3755 19.125 31.8857 18.621 31.8857 18C31.8857 17.379 31.3755 16.875 30.7469 16.875H13.5503C13.0231 14.3078 10.7262 12.375 7.9715 12.375C5.21682 12.375 2.91984 14.3078 2.39261 16.875ZM11.3878 18C11.3878 19.8642 9.8584 21.375 7.97145 21.375C6.08448 21.375 4.5551 19.8642 4.5551 18C4.5551 16.1359 6.08448 14.625 7.97145 14.625C9.8584 14.625 11.3878 16.1359 11.3878 18ZM18.3355 5.62502H1.13878C0.510161 5.62502 -2.74764e-08 6.12906 0 6.75001C2.74741e-08 7.37097 0.510161 7.87501 1.13878 7.87501H18.3355C18.8627 10.4423 21.1597 12.375 23.9143 12.375C26.669 12.375 28.9659 10.4423 29.4931 7.87501H30.7469C31.3755 7.87501 31.8857 7.37097 31.8857 6.75001C31.8857 6.12906 31.3755 5.62502 30.7469 5.62502H29.4931C28.9659 3.05774 26.669 1.125 23.9143 1.125C21.1597 1.125 18.8628 3.05774 18.3355 5.62502ZM27.3306 6.75001C27.3306 8.61414 25.8012 10.125 23.9143 10.125C22.0274 10.125 20.498 8.61414 20.498 6.75001C20.498 4.88587 22.0274 3.37499 23.9143 3.37499C25.8012 3.37499 27.3306 4.88587 27.3306 6.75001Z" fill="#63A60E"/>
</g>
<defs>
<clipPath id="clip0_862_5407">
<rect width="31.8857" height="36" fill="white"/>
</clipPath>
</defs>
</svg>

<svg width="32" height="36" fill="none" xmlns="http://www.w3.org/2000/svg"><g clip-path="url(#clip0_862_5407)"><path d="M13.78 28.125H1.14c-.63 0-1.14.505-1.14 1.125s.51 1.125 1.139 1.125H13.78c.528 2.567 2.825 4.5 5.58 4.5 2.754 0 5.05-1.933 5.578-4.5h5.809c.628 0 1.139-.504 1.139-1.125 0-.62-.51-1.125-1.14-1.125h-5.808c-.527-2.567-2.824-4.5-5.579-4.5-2.754 0-5.051 1.933-5.579 4.5zm8.996 1.125c0 1.864-1.53 3.375-3.417 3.375-1.887 0-3.416-1.51-3.416-3.375 0-1.864 1.53-3.375 3.416-3.375 1.887 0 3.416 1.51 3.416 3.375zM2.393 16.875H1.139C.51 16.875 0 17.379 0 18s.51 1.125 1.139 1.125h1.254c.527 2.567 2.824 4.5 5.578 4.5 2.755 0 5.052-1.933 5.58-4.5h17.196c.628 0 1.139-.504 1.139-1.125s-.51-1.125-1.14-1.125H13.55c-.527-2.567-2.824-4.5-5.579-4.5-2.754 0-5.051 1.933-5.578 4.5zM11.388 18c0 1.864-1.53 3.375-3.417 3.375-1.887 0-3.416-1.51-3.416-3.375 0-1.864 1.53-3.375 3.416-3.375 1.887 0 3.417 1.51 3.417 3.375zm6.947-12.375H1.14C.51 5.625 0 6.129 0 6.75s.51 1.125 1.139 1.125h17.197c.527 2.567 2.824 4.5 5.578 4.5 2.755 0 5.052-1.933 5.58-4.5h1.253c.628 0 1.139-.504 1.139-1.125 0-.62-.51-1.125-1.14-1.125h-1.253c-.527-2.567-2.824-4.5-5.579-4.5-2.754 0-5.051 1.933-5.579 4.5zm8.996 1.125c0 1.864-1.53 3.375-3.417 3.375-1.887 0-3.416-1.51-3.416-3.375 0-1.864 1.53-3.375 3.416-3.375 1.887 0 3.417 1.51 3.417 3.375z" fill="#63A60E"/></g><defs><clipPath id="clip0_862_5407"><path fill="#fff" d="M0 0h31.886v36H0z"/></clipPath></defs></svg>
